!!!COM: Palestrina, Giovanni Perluigi da
!!!OPR: Missa Vestiva i colli
!!!OTL: Sanctus
**kern	**kern	**kern	**kern	**kern
*Ibass	*Itenor	*Itenor	*Icalto	*Icant
!Bassus	!Tenor 2	!Tenor 1	!Altus	!Cantus
*clefF4	*clefGv2	*clefGv2	*clefG2	*clefG2
*k[]	*k[]	*k[]	*k[]	*k[]
*A:aeo	*A:aeo	*A:aeo	*A:aeo	*A:aeo
*M4/2	*M4/2	*M4/2	*M4/2	*M4/2
=1	=1	=1	=1	=1
0r	0r	0r	0r	1a
.	.	.	.	2.dd
.	.	.	.	4ee
=2	=2	=2	=2	=2
0r	0r	0r	1d	4ff
.	.	.	.	4dd
.	.	.	.	2ff
.	.	.	2.a	2ee
.	.	.	.	4cc
.	.	.	4b	4dd
=3	=3	=3	=3	=3
0r	0r	1A	4cc	4ee
.	.	.	4a	4ff
.	.	.	2cc	2ee
.	.	2.d	2b	[1dd
.	.	.	4a	.
.	.	4e	4g	.
=4	=4	=4	=4	=4
0r	0r	4f	2.a	2dd]
.	.	4d	.	.
.	.	2f	.	4cc
.	.	.	4f	4b
.	.	2e	2g	2.cc
.	.	2c	[2a	.
.	.	.	.	4a
=5	=5	=5	=5	=5
0r	1r	2d	2a]	1b
.	.	1e	2g#	.
.	1A	.	[1a	2cc
.	.	2c	.	2ee
=6	=6	=6	=6	=6
1r	2.d	4d	1a_	2.ff
.	.	4e	.	.
.	.	4f	.	.
.	4e	4g	.	4ee
1D	4f	2a	1a_	1dd
.	4d	.	.	.
.	2f	2d	.	.
=7	=7	=7	=7	=7
2.A	2e	2.c	1a]	0ee
.	1a	.	.	.
4B	.	4d	.	.
4c	.	4e	1r	.
4A	.	4f	.	.
2c	4g	[2e	.	.
.	4f	.	.	.
=8	=8	=8	=8	=8
1B	4g	4e]	1d	0r
.	4f	4d	.	.
.	4e	1d	.	.
.	4d	.	.	.
[1A	1e	.	2.a	.
.	.	2c	.	.
.	.	.	4b	.
=9	=9	=9	=9	=9
1A]	0r	2.e	4cc	1a
.	.	.	4a	.
.	.	.	2cc	.
.	.	4f	.	.
1G	.	2g	4b	2.dd
.	.	.	4g	.
.	.	2G	2b	.
.	.	.	.	4ee
=10	=10	=10	=10	=10
0r	1d	1r	1a	4ff
.	.	.	.	4dd
.	.	.	.	2.ff
.	2.a	1A	2.cc	.
.	.	.	.	4ee
.	.	.	.	2ee
.	4g	.	4b	.
=11	=11	=11	=11	=11
1D	4f	2.d	1a	1dd
.	4d	.	.	.
.	2f	.	.	.
.	.	4d	.	.
2.A	4e	4c	1a	[1ee
.	4d	4B	.	.
.	4c	4c	.	.
4B	4B	4d	.	.
=12	=12	=12	=12	=12
4c	1A	2.e	2r	1ee]
4A	.	.	.	.
2c	.	.	2a	.
.	.	4c	.	.
1B	1r	1d	2a	2r
.	.	.	2g#	2dd
=13	=13	=13	=13	=13
1A	1r	1e	2a	2dd
.	.	.	2A	2cc#
1D	2r	2.f	2.a	2dd
.	2d	.	.	2d
.	.	4e	4g	.
=14	=14	=14	=14	=14
1r	2d	2d	2f	2.a
.	2c#	2A	2e	.
.	.	.	.	4g
2r	2.d	1r	1a	2f
2d	.	.	.	2d
.	4e	.	.	.
=15	=15	=15	=15	=15
2d	2f	1r	2d	0a
2c#	2e	.	2e	.
2d	2d	2r	4f	.
.	.	.	4g	.
2D	2f	2d	4a	.
.	.	.	4b-	.
=16	=16	=16	=16	=16
2.A	1e	2d	[0a	1r
.	.	2c#	.	.
4G	.	.	.	.
2F	1r	2.d	.	2r
2D	.	.	.	2dd
.	.	4e	.	.
=17	=17	=17	=17	=17
1A	1r	2f	1a]	2dd
.	.	2e	.	2cc#
1D	2r	2d	2.a	2dd
.	2a	2f	.	2dd
.	.	.	4b	.
=18	=18	=18	=18	=18
0r	2a	1e	2cc	2.ee
.	2g#	.	2.b	.
.	.	.	.	4dd
.	2a	1A	.	2cc
.	.	.	4a	.
.	2A	.	[2a	2cc
=19	=19	=19	=19	=19
0r	2.e	1r	2a]	2b
.	.	.	2g#	2ee
.	4d	.	.	.
.	2c	2r	1a	2ee
.	2A	2a	.	2cc
=20	=20	=20	=20	=20
2r	1B	2a	1d	2.dd
2d	.	2g#	.	.
.	.	.	.	4ee
2d	1A	2a	2r	2ff
2c#	.	2A	2e	[2ee
=21	=21	=21	=21	=21
2d	0r	2.a	2f	4ee]
.	.	.	.	4dd
2D	.	.	2f	1dd
.	.	4g	.	.
2.A	.	2f	1a	.
.	.	2e	.	2cc#
4G	.	.	.	.
=22	=22	=22	=22	=22
2F	2r	1f	1a	1dd
2D	2d	.	.	.
1A	2d	1e	2r	1ee
.	2c#	.	[2a	.
=23	=23	=23	=23	=23
1D	2.d	0r	4a]	2.ff
.	.	.	4g	.
.	.	.	4f	.
.	4e	.	4g	4ee
1r	2f	.	4a	4cc
.	.	.	4b	4dd
.	2e	.	2cc	4ee
.	.	.	.	4cc
=24	=24	=24	=24	=24
0r	2d	1r	4b	4dd
.	.	.	4a	4cc
.	2f	.	1a	4b
.	.	.	.	4a
.	1e	2r	.	1b
.	.	2e	2g#	.
=25	=25	=25	=25	=25
2r	2.A	4e	1a	2.cc
.	.	4e	.	.
2A	.	2f	.	.
.	4B	.	.	4dd
4A	1c	1e	1r	1ee
4A	.	.	.	.
2c	.	.	.	.
=26	=26	=26	=26	=26
2B	2r	2d	0r	0r
2.A	2e	2.c	.	.
.	4e	.	.	.
4G	4e	4B	.	.
4A	2f	4c	.	.
4F	.	4A	.	.
=27	=27	=27	=27	=27
1G	2e	2.B	0r	1r
.	1d	.	.	.
.	.	4A	.	.
[1E	.	[1G	.	2r
.	4c#	.	.	2ee
.	4B	.	.	.
=28	=28	=28	=28	=28
1E]	1c#	1G]	1r	4ee
.	.	.	.	4ee
.	.	.	.	1gg
1D	1d	2A	2r	.
.	.	4A	2a	2ff
.	.	4B	.	.
=29	=29	=29	=29	=29
0r	1A	4c	4a	1ee
.	.	4d	4a	.
.	.	4e	2cc	.
.	.	4f	.	.
.	1r	2g	2b	2dd
.	.	2a	[2a	2cc
=30	=30	=30	=30	=30
1r	2r	1e	2a]	1b
.	2.e	.	2g#	.
2.A	.	2r	1a	1cc
.	4e	.	.	.
.	2f	[2a	.	.
4A	.	.	.	.
=31	=31	=31	=31	=31
2c	2e	4a]	1r	0r
.	.	4a	.	.
2B	2.d	2g	.	.
[1A	.	2f	2.a	.
.	4c	.	.	.
.	2c	4e	.	.
.	.	4d	4a	.
=32	=32	=32	=32	=32
2A]	2A	1e	2cc	0r
2G	2B	.	2.b	.
1F	2c	1A	.	.
.	.	.	4a	.
.	2d	.	[2a	.
=33	=33	=33	=33	=33
1E	1e	2B	2a]	2.ee
.	.	2c	2g	.
.	.	.	.	4ee
2D	1A	2d	4f	2ff
.	.	.	4d	.
2C#	.	2e	[2a	[2ee
=34	=34	=34	=34	=34
1D	2r	2.f	4a]	2ee]
.	.	.	4g	.
.	1a	.	2f	1dd
.	.	4g	.	.
1A	.	2a	1e	.
.	2a	[2A	.	4cc
.	.	.	.	4b
=35	=35	=35	=35	=35
0r	2a	4A]	2.e	4cc
.	.	4A	.	4dd
.	2.g	2c	.	1ee
.	.	.	4e	.
.	.	1B	1g	.
.	4f	.	.	.
.	2d	.	.	[2dd
=36	=36	=36	=36	=36
1r	2e	1A	1a	2dd]
.	2a	.	.	2cc#
2r	4a	4d	1f	2.dd
.	4a	4e	.	.
2d	2a	4f	.	.
.	.	4g	.	4ee
=37	=37	=37	=37	=37
4d	2d	1a	2r	2ff
4d	.	.	.	.
2d	2f	.	2a	2dd
2A	2e	2r	4a	2.cc
.	.	.	4a	.
[2c	2A	2e	2a	.
.	.	.	.	4dd
=38	=38	=38	=38	=38
4c]	2A	4e	2e	1ee
4B	.	4e	.	.
1A	4A	1e	1cc	.
.	4B	.	.	.
.	4c	.	.	2r
.	4d	.	.	.
2G#	2e	2B	[2b	2ee
=39	=39	=39	=39	=39
1A	1e	1c	4b]	4ee
.	.	.	4a	4ee
.	.	.	1a	1ee
1E	2r	1B	.	.
.	2e	.	2g#	2b
=40	=40	=40	=40	=40
2r	4e	2A	[0a	2.cc#
.	4e	.	.	.
2A	1e	2A	.	.
.	.	.	.	4dd
4A	.	2c#	.	1ee
4A	.	.	.	.
2A	2A	2c#	.	.
=41	=41	=41	=41	=41
2D	2.f	2d	0a]	2dd
2.F	.	2A	.	1cc
.	8e	.	.	.
.	8d	.	.	.
.	2c	2.f	.	.
4E	.	.	.	.
[2D	2d	.	.	[2ff
.	.	4e	.	.
=42	=42	=42	=42	=42
2D]	0A	2d	[0a	2ff]
2C#	.	2e	.	2ee
1D	.	1f	.	1dd
=43	=43	=43	=43	=43
0AA	0A	0e	0a]	0cc#
==	==	==	==	==
*-	*-	*-	*-	*-
!!!CDT: 1525/^1526/-1594/2/2
!!!OCY: Italia
!!!AGN: Mass (Parody)
!!!AST: renaissance, vocal
!!!ASW: Madrigal 1566 (Palestrina)
!!!PWK: Masses, Book 9
!!!RNB: Cadence finals: D
!!!YOR: Le Opere Complete, v. 25, p. 54
!!!YOO: Rome, Italy: Fratelli Scalera
!!!END: 1992//
!!!EED: John Miller
!!!YEC: Copyright 2000, John Miller
!!!YEN: United States of America
!!!YEM: Rights to all derivative electronic formats reserved.
!!!YEM: Refer to licensing agreement for further details.
!!!YEM: This file must be accompanied by the licensing agreement.
!!!YEM: A copy of the licensing agreement may be found at http://www.music-cog.ohio-state.edu/HumdrumDatabases/Palestrina/license.txt
!!!EMD: converted to Humdrum by Bret Aarden
